X:1
T:Apple Peel Reel
C:Megan Wobus
S:Megan Wobus composed 9/29/2002
R:reel
M:2/4
K:F
|: ccfc gcac  | bcac gcfc | eccf ccgc | accg ccec |
ccfc gcac  | bcac gcfc | efga bagf | edcA F4 :|
|:Ddde fdde | fedc BAGF | Ecef gcef | gfed cBAG  |
 Fdfg adfg | agfe dcBA | GBAG FEDB, A,^CEG FED2 :|
W:Copyright 2002 Megan Wobus, PGTPPCATPL AORR
